src/img/smile.svg

<svg width="512" height="512" xmlns="http://www.w3.org/2000/svg">

 <g>
  <title>background</title>
  <rect fill="none" id="canvas_background" height="402" width="582" y="-1" x="-1"/>
 </g>
 <g>
  <title>Layer 1</title>
  <g id="svg_1">
   <g id="svg_2">
    <path fill="#ff0000" id="svg_3" d="m437.02,74.98c-48.353,-48.351 -112.64,-74.98 -181.02,-74.98s-132.667,26.629 -181.02,74.98c-48.351,48.353 -74.98,112.64 -74.98,181.02s26.629,132.668 74.98,181.02c48.353,48.351 112.64,74.98 181.02,74.98s132.667,-26.629 181.02,-74.98c48.351,-48.352 74.98,-112.64 74.98,-181.02s-26.629,-132.667 -74.98,-181.02zm-181.02,397.02c-119.103,0 -216,-96.897 -216,-216s96.897,-216 216,-216s216,96.897 216,216s-96.897,216 -216,216z"/>
   </g>
  </g>
  <g id="svg_4">
   <g id="svg_5">
    <path fill="#ff0000" id="svg_6" d="m368.993,285.776c-0.072,0.214 -7.298,21.626 -25.02,42.393c-22.554,26.43 -51.345,39.831 -85.573,39.831c-34.475,0 -64.195,-13.561 -88.333,-40.303c-18.92,-20.962 -27.272,-42.54 -27.33,-42.691l-37.475,13.99c0.42,1.122 10.533,27.792 34.013,54.273c31.747,35.805 72.94,54.731 119.125,54.731c46.412,0 86.904,-19.076 117.099,-55.166c22.318,-26.675 31.165,-53.55 31.531,-54.681l-38.037,-12.377z"/>
   </g>
  </g>
  <g id="svg_7">
   <g id="svg_8">
    <circle fill="#ff0000" id="svg_9" r="32" cy="180.12" cx="168"/>
   </g>
  </g>
  <g id="svg_10">
   <g id="svg_11">
    <circle fill="#ff0000" id="svg_12" r="32" cy="180.12" cx="344"/>
   </g>
  </g>
  <g id="svg_13"/>
  <g id="svg_14"/>
  <g id="svg_15"/>
  <g id="svg_16"/>
  <g id="svg_17"/>
  <g id="svg_18"/>
  <g id="svg_19"/>
  <g id="svg_20"/>
  <g id="svg_21"/>
  <g id="svg_22"/>
  <g id="svg_23"/>
  <g id="svg_24"/>
  <g id="svg_25"/>
  <g id="svg_26"/>
  <g id="svg_27"/>
 </g>
</svg>

<?xml version="1.0" encoding="iso-8859-1"?>
<!-- Generator: Adobe Illustrator 19.0.0, SVG Export Plug-In . SVG Version: 6.00 Build 0)  -->
<svg version="1.1" id="Capa_1" xmlns="http://www.w3.org/2000/svg" xmlns:xlink="http://www.w3.org/1999/xlink" x="0px" y="0px"
	 viewBox="0 0 512 512" style="enable-background:new 0 0 512 512;" xml:space="preserve">
<g>
	<g>
		<path d="M437.02,74.98C388.667,26.629,324.38,0,256,0S123.333,26.629,74.98,74.98C26.629,123.333,0,187.62,0,256
			s26.629,132.668,74.98,181.02C123.333,485.371,187.62,512,256,512s132.667-26.629,181.02-74.98
			C485.371,388.668,512,324.38,512,256S485.371,123.333,437.02,74.98z M256,472c-119.103,0-216-96.897-216-216S136.897,40,256,40
			s216,96.897,216,216S375.103,472,256,472z"/>
	</g>
</g>
<g>
	<g>
		<path d="M368.993,285.776c-0.072,0.214-7.298,21.626-25.02,42.393C321.419,354.599,292.628,368,258.4,368
			c-34.475,0-64.195-13.561-88.333-40.303c-18.92-20.962-27.272-42.54-27.33-42.691l-37.475,13.99
			c0.42,1.122,10.533,27.792,34.013,54.273C171.022,389.074,212.215,408,258.4,408c46.412,0,86.904-19.076,117.099-55.166
			c22.318-26.675,31.165-53.55,31.531-54.681L368.993,285.776z"/>
	</g>
</g>
<g>
	<g>
		<circle cx="168" cy="180.12" r="32"/>
	</g>
</g>
<g>
	<g>
		<circle cx="344" cy="180.12" r="32"/>
	</g>
</g>
<g>
</g>
<g>
</g>
<g>
</g>
<g>
</g>
<g>
</g>
<g>
</g>
<g>
</g>
<g>
</g>
<g>
</g>
<g>
</g>
<g>
</g>
<g>
</g>
<g>
</g>
<g>
</g>
<g>
</g>
</svg>
